packages/katcn/src/icons/svg/link.svg

<svg width="24" height="25" viewBox="0 0 24 25" fill="none" xmlns="http://www.w3.org/2000/svg">
<path fill-rule="evenodd" clip-rule="evenodd" d="M18.6961 5.61589C16.9576 3.87738 14.0424 3.87738 12.3039 5.61589L10.7071 7.21267C10.3166 7.60319 9.68342 7.60319 9.29289 7.21267C8.90237 6.82214 8.90237 6.18898 9.29289 5.79845L10.8897 4.20168C13.4092 1.68212 17.5908 1.68212 20.1103 4.20168C22.6299 6.72124 22.6299 10.9028 20.1103 13.4223L18.5136 15.0191C18.123 15.4096 17.4899 15.4096 17.0993 15.0191C16.7088 14.6286 16.7088 13.9954 17.0993 13.6049L18.6961 12.0081C20.4346 10.2696 20.4346 7.3544 18.6961 5.61589ZM15.7071 8.60491C16.0976 8.99543 16.0976 9.62859 15.7071 10.0191L9.70711 16.0191C9.31658 16.4096 8.68342 16.4096 8.29289 16.0191C7.90237 15.6286 7.90237 14.9954 8.29289 14.6049L14.2929 8.60491C14.6834 8.21438 15.3166 8.21438 15.7071 8.60491ZM6.90066 9.60491C7.29118 9.99543 7.29118 10.6286 6.90066 11.0191L5.30388 12.6159C3.56537 14.3544 3.56537 17.2696 5.30388 19.0081C7.04239 20.7466 9.95761 20.7466 11.6961 19.0081L13.2929 17.4114C13.6834 17.0208 14.3166 17.0208 14.7071 17.4114C15.0976 17.8019 15.0976 18.435 14.7071 18.8256L13.1103 20.4223C10.5908 22.9419 6.40922 22.9419 3.88967 20.4223C1.37011 17.9028 1.37011 13.7212 3.88967 11.2017L5.48644 9.60491C5.87697 9.21438 6.51013 9.21438 6.90066 9.60491Z" fill="black"/>
</svg>

<svg xmlns="http://www.w3.org/2000/svg" fill="none" viewBox="0 0 24 25"><path fill="#000" fill-rule="evenodd" d="M18.696 5.616c-1.738-1.739-4.654-1.739-6.392 0l-1.597 1.597a1 1 0 0 1-1.414-1.415l1.597-1.596c2.52-2.52 6.7-2.52 9.22 0s2.52 6.7 0 9.22l-1.596 1.597a1 1 0 0 1-1.415-1.414l1.597-1.597c1.739-1.738 1.739-4.654 0-6.392m-2.989 2.989a1 1 0 0 1 0 1.414l-6 6a1 1 0 0 1-1.414-1.414l6-6a1 1 0 0 1 1.414 0m-8.806 1a1 1 0 0 1 0 1.414l-1.597 1.597c-1.739 1.738-1.739 4.654 0 6.392 1.738 1.739 4.654 1.739 6.392 0l1.597-1.597a1 1 0 1 1 1.414 1.415l-1.597 1.596c-2.52 2.52-6.7 2.52-9.22 0s-2.52-6.7 0-9.22l1.596-1.597a1 1 0 0 1 1.415 0" clip-rule="evenodd"/></svg>
